icons/solid/bell.svg

<svg width="24" height="24" viewBox="0 0 24 24" fill="none" xmlns="http://www.w3.org/2000/svg">
<path fill-rule="evenodd" clip-rule="evenodd" d="M12 2C12.5523 2 13 2.44772 13 3V4.05504C15.1743 4.30168 16.6648 5.35082 17.6115 6.6657C18.6602 8.1222 19 9.83998 19 11V14.5858L20.7071 16.2929C20.9931 16.5789 21.0787 17.009 20.9239 17.3827C20.7691 17.7564 20.4045 18 20 18H17H16H8H7H4C3.59554 18 3.2309 17.7564 3.07612 17.3827C2.92134 17.009 3.00689 16.5789 3.29289 16.2929L5 14.5858V11C5 8.27408 6.1582 6.47386 7.66569 5.38847C8.74474 4.61155 9.96718 4.22372 11 4.07488V3C11 2.44772 11.4477 2 12 2ZM8.1259 19C8.24263 19.4766 8.45033 19.9897 8.78846 20.4593C9.42386 21.3418 10.4741 22 12 22C13.5259 22 14.5761 21.3418 15.2115 20.4593C15.5497 19.9897 15.7574 19.4766 15.8741 19H8.1259Z" fill="currentColor"/>
</svg>

<svg width="24" height="24" fill="none" xmlns="http://www.w3.org/2000/svg"><path fill-rule="evenodd" clip-rule="evenodd" d="M12 2a1 1 0 011 1v1.055c2.174.247 3.665 1.296 4.611 2.61C18.662 8.123 19 9.84 19 11v3.586l1.707 1.707A1 1 0 0120 18H4a1 1 0 01-.707-1.707L5 14.586V11c0-2.726 1.158-4.526 2.666-5.612C8.745 4.612 9.967 4.224 11 4.075V3a1 1 0 011-1zM8.126 19c.117.477.324.99.662 1.46C9.424 21.341 10.474 22 12 22c1.526 0 2.576-.658 3.211-1.54.339-.47.546-.983.663-1.46H8.126z" fill="currentColor"/></svg>
